src/front_assets/svg/blog.svg

<!DOCTYPE svg PUBLIC "-//W3C//DTD SVG 1.1//EN" "http://www.w3.org/Graphics/SVG/1.1/DTD/svg11.dtd">
<!-- Uploaded to: SVG Repo, www.svgrepo.com, Transformed by: SVG Repo Mixer Tools -->
<svg width="800px" height="800px" viewBox="0 0 24 24" fill="none" xmlns="http://www.w3.org/2000/svg">
<g id="SVGRepo_bgCarrier" stroke-width="0"/>
<g id="SVGRepo_tracerCarrier" stroke-linecap="round" stroke-linejoin="round"/>
<g id="SVGRepo_iconCarrier"> <rect x="4" y="3" width="16" height="18" rx="2" fill="#1C274C" fill-opacity="0.24"/> <path d="M8.5 6.5L15.5 6.5" stroke="#1C274C" stroke-linecap="round"/> <path d="M8.5 9.5L12.5 9.5" stroke="#1C274C" stroke-linecap="round"/> <path d="M8.5 12.5L14.5 12.5" stroke="#1C274C" stroke-linecap="round"/> <path d="M4 19C4 17.8954 4.89543 17 6 17H17C17.9319 17 18.3978 17 18.7654 16.8478C19.2554 16.6448 19.6448 16.2554 19.8478 15.7654C20 15.3978 20 14.9319 20 14V17C20 18.8856 20 19.8284 19.4142 20.4142C18.8284 21 17.8856 21 16 21H6C4.89543 21 4 20.1046 4 19Z" fill="#1C274C"/> </g>
</svg>

<svg xmlns="http://www.w3.org/2000/svg" width="800" height="800" fill="none" viewBox="0 0 24 24"><rect width="16" height="18" x="4" y="3" fill="#1C274C" fill-opacity=".24" rx="2"/><path stroke="#1C274C" stroke-linecap="round" d="M8.5 6.5h7m-7 3h4m-4 3h6"/><path fill="#1C274C" d="M4 19a2 2 0 0 1 2-2h11c.932 0 1.398 0 1.765-.152a2 2 0 0 0 1.083-1.083C20 15.398 20 14.932 20 14v3c0 1.886 0 2.828-.586 3.414S17.886 21 16 21H6a2 2 0 0 1-2-2"/></svg>
